svg/bag_personal_plus_outline.svg

<svg xmlns="http://www.w3.org/2000/svg" viewBox="0 0 24 24"><path d="M22 19h-3v3h-2v-3h-3v-2h3v-3h2v3h3zM8 2c-1.1 0-2 .9-2 2v1C3.8 5 2 6.8 2 9v11c0 1.1.9 2 2 2h9.5c-.5-.6-.9-1.3-1.2-2H4v-4h2v2h1v-2h5.3c.1-.3.3-.7.5-1H4V9c0-1.1.9-2 2-2h8c1.1 0 2 .9 2 2v3.3c.6-.2 1.3-.3 2-.3V9c0-2.2-1.8-4-4-4V4c0-1.1-.9-2-2-2zm0 2h4v1H8zm2 5-2 2 2 2 2-2z"/></svg>

<svg xmlns="http://www.w3.org/2000/svg" id="mdi-bag-personal-plus-outline" viewBox="0 0 24 24"><path d="M22 19H19V22H17V19H14V17H17V14H19V17H22V19M8 2C6.9 2 6 2.9 6 4V5C3.8 5 2 6.8 2 9V20C2 21.1 2.9 22 4 22H13.5C13 21.4 12.6 20.7 12.3 20H4V16H6V18H7V16H12.3C12.4 15.7 12.6 15.3 12.8 15H4V9C4 7.9 4.9 7 6 7H14C15.1 7 16 7.9 16 9V12.3C16.6 12.1 17.3 12 18 12V9C18 6.8 16.2 5 14 5V4C14 2.9 13.1 2 12 2H8M8 4H12V5H8V4M10 9L8 11L10 13L12 11L10 9Z" /></svg>
